icon-themes/sifr_svg/cmd/sc_fontdialog.svg

<svg viewBox="0 0 16 16" xmlns="http://www.w3.org/2000/svg"><path d="m5 1v2h5c.552285 0 1 .4477153 1 1v1h-5c-1.6568542 0-3 1.3431458-3 3s1.3431458 3 3 3h5v-2h-5c-.5522847 0-1-.4477153-1-1s.4477153-1 1-1h5v1h2v-4c0-1.6568542-1.343146-3-3-3zm7 8v1c1.560655 1.623957-.566483 3.497742-2 2h-1v1c.8.77108 1.635355 1 2.400391 1h1.599609l2 2h1v-1l-2-2v-1.599609c0-.88237-.214695-1.600391-1-2.400391z" fill="#555753"/></svg>

<svg xmlns="http://www.w3.org/2000/svg" viewBox="0 0 16 16">
  <path
     style="fill:#555753"
     d="M 5 1 L 5 3 L 10 3 C 10.552285 3 11 3.4477153 11 4 L 11 5 L 6 5 C 4.3431458 5 3 6.3431458 3 8 C 3 9.6568542 4.3431458 11 6 11 L 11 11 L 11 9 L 6 9 C 5.4477153 9 5 8.5522847 5 8 C 5 7.4477153 5.4477153 7 6 7 L 11 7 L 11 8 L 13 8 L 13 4 C 13 2.3431458 11.656854 1 10 1 L 5 1 z M 12 9 L 12 10 C 13.560655 11.623957 11.433517 13.497742 10 12 L 9 12 L 9 13 C 9.8 13.77108 10.635355 14 11.400391 14 L 13 14 L 15 16 L 16 16 L 16 15 L 14 13 L 14 11.400391 C 14 10.518021 13.785305 9.8 13 9 L 12 9 z "
     />
</svg>
